X: 33361
T: Queen Of The Fairies
R: hornpipe
M: 4/4
K: Gmajor
|:~A3B ~c3d|e2a2 g2 a2|(3efe d2 (3cdc B2|ABAG E2 D2|
E2 ~A3 Bcd|e2a2 g2 a2|(3efe de g2 B2|1 B2 A2 A2 E2:|2 B2 A2 A4||
|:e2 a2 c'2 a2|e'2 a2 c'b a2|e2 g2 d2 g2|Bdge dBGB|
A2 a2 c'2 a2|e'3 a2 c'b a2|(3fgf (3efe (3ded (3Bcd|c2 A2 A4:|

